src/apps/symbolic/multimedia-equalizer-symbolic.svg

<svg width="16" height="16" version="1.1" xmlns="http://www.w3.org/2000/svg">
 <path d="m11.5 2c-0.277 0-0.5 0.223-0.5 0.5v0.5h-9.5c-0.277 0-0.5 0.223-0.5 0.5s0.223 0.5 0.5 0.5h9.5v0.5c0 0.277 0.223 0.5 0.5 0.5s0.5-0.223 0.5-0.5v-2c0-0.277-0.223-0.5-0.5-0.5zm1.5 1v1h1.5c0.277 0 0.5-0.223 0.5-0.5s-0.223-0.5-0.5-0.5zm-8.5 4c-0.277 0-0.5 0.223-0.5 0.5v0.5h-2.5c-0.277 0-0.5 0.223-0.5 0.5s0.223 0.5 0.5 0.5h2.5v0.5c0 0.277 0.223 0.5 0.5 0.5s0.5-0.223 0.5-0.5v-2c0-0.277-0.223-0.5-0.5-0.5zm1.5 1v1h8.5c0.277 0 0.5-0.223 0.5-0.5s-0.223-0.5-0.5-0.5zm2.5 4c-0.277 0-0.5 0.223-0.5 0.5v0.5h-6.5c-0.277 0-0.5 0.223-0.5 0.5s0.223 0.49964 0.5 0.5h6.5v0.5c0 0.277 0.223 0.5 0.5 0.5s0.5-0.223 0.5-0.5v-2c0-0.277-0.223-0.5-0.5-0.5zm1.5 1v1h4.5c0.277 0 0.5-0.223 0.5-0.5s-0.223-0.50052-0.5-0.5z" fill="#363636" stroke-linecap="round" stroke-linejoin="round" stroke-width="1.0016"/>
</svg>

<svg xmlns="http://www.w3.org/2000/svg" width="16" height="16">
    <path fill="#050505" fill-opacity=".7" d="M11.5 2c-.277 0-.5.223-.5.5V3H1.5a.499.499 0 1 0 0 1H11v.5a.499.499 0 1 0 1 0v-2c0-.277-.223-.5-.5-.5zM13 3v1h1.5a.499.499 0 1 0 0-1zM4.5 7c-.277 0-.5.223-.5.5V8H1.5a.499.499 0 1 0 0 1H4v.5a.499.499 0 1 0 1 0v-2c0-.277-.223-.5-.5-.5zM6 8v1h8.5a.499.499 0 1 0 0-1zm2.5 4c-.277 0-.5.223-.5.5v.5H1.5a.499.499 0 1 0 0 1H8v.5a.499.499 0 1 0 1 0v-2c0-.277-.223-.5-.5-.5zm1.5 1v1h4.5a.499.499 0 1 0 0-1z"/>
</svg>
